assets/img/alias/versum.svg

<svg width="350" height="350" viewBox="0 0 350 350" fill="none" xmlns="http://www.w3.org/2000/svg">
<rect width="350" height="350" rx="175" fill="black"/>
<path d="M305.524 102.81C300.103 93.1747 293.619 84.1801 286.194 75.995L187.642 174.745L286.194 273.551C293.621 265.317 300.105 256.276 305.524 246.596L233.873 174.633L305.524 102.81Z" fill="white"/>
<path d="M103.197 43.75C93.5141 49.2326 84.4886 55.8063 76.2962 63.3432L175.016 162.093L273.568 63.3432C265.398 55.8408 256.423 49.2696 246.807 43.75L175.016 115.713L103.197 43.75Z" fill="white"/>
<path d="M275.495 158.314L259.154 174.689L275.495 191.091H322.788C323.382 185.644 323.68 180.168 323.682 174.689C323.684 169.218 323.386 163.752 322.788 158.314H275.495Z" fill="white"/>
<path d="M63.8095 75.939C39.0119 102.741 25.5799 138.15 26.3497 174.689C26.0105 194.3 29.7016 213.77 37.1937 231.891C44.6857 250.011 55.8184 266.392 69.8992 280.017C99.0346 309.211 133.98 323.822 175.016 323.654C211.485 324.381 246.831 310.998 273.707 286.287L63.8095 75.939Z" fill="white"/>
</svg>

<svg width="350" height="350" fill="none" xmlns="http://www.w3.org/2000/svg"><rect width="350" height="350" rx="175" fill="#000"/><path d="M305.524 102.81a147.707 147.707 0 0 0-19.33-26.815l-98.552 98.75 98.552 98.806a148.674 148.674 0 0 0 19.33-26.955l-71.651-71.963 71.651-71.823ZM103.197 43.75a145.935 145.935 0 0 0-26.9 19.593l98.719 98.75 98.552-98.75a149.879 149.879 0 0 0-26.761-19.593l-71.791 71.963-71.819-71.963Z" fill="#fff"/><path d="m275.495 158.314-16.341 16.375 16.341 16.402h47.293c.594-5.447.892-10.923.894-16.402a149.298 149.298 0 0 0-.894-16.375h-47.293ZM63.81 75.939c-24.798 26.802-38.23 62.211-37.46 98.75a143.23 143.23 0 0 0 10.844 57.202 142.993 142.993 0 0 0 32.705 48.126c29.136 29.194 64.081 43.805 105.117 43.637a141.637 141.637 0 0 0 98.691-37.367L63.81 75.939Z" fill="#fff"/></svg>
